icons/linear-ele-symbol-copy.svg

<svg xmlns="http://www.w3.org/2000/svg" width="32px" height="32px" viewBox="0 0 32 32" version="1.1">
    <title>linear-ele-symbol-copy</title>
    <g id="linear-ele-symbol-copy" stroke-width="1" fill-rule="evenodd">
        <path d="M6,8 L6,10 C4.8954305,10 4,10.8954305 4,12 L4,26 C4,27.1045695 4.8954305,28 6,28 L20,28 C21.1045695,28 22,27.1045695 22,26 L24,26 C24,28.209139 22.209139,30 20,30 L6,30 C3.790861,30 2,28.209139 2,26 L2,12 C2,9.790861 3.790861,8 6,8 Z M26,2 C28.209139,2 30,3.790861 30,6 L30,20 C30,22.209139 28.209139,24 26,24 L12,24 C9.790861,24 8,22.209139 8,20 L8,6 C8,3.790861 9.790861,2 12,2 L26,2 Z M26,4 L12,4 C10.8954305,4 10,4.8954305 10,6 L10,20 C10,21.1045695 10.8954305,22 12,22 L26,22 C27.1045695,22 28,21.1045695 28,20 L28,6 C28,4.8954305 27.1045695,4 26,4 Z" id="&#24418;&#29366;" fill-rule="nonzero" />
    </g>
</svg>

<svg xmlns="http://www.w3.org/2000/svg" viewBox="0 0 32 32"><path fill="currentColor" d="M6 8v2a2 2 0 0 0-2 2v14a2 2 0 0 0 2 2h14a2 2 0 0 0 2-2h2a4 4 0 0 1-4 4H6a4 4 0 0 1-4-4V12a4 4 0 0 1 4-4m20-6a4 4 0 0 1 4 4v14a4 4 0 0 1-4 4H12a4 4 0 0 1-4-4V6a4 4 0 0 1 4-4zm0 2H12a2 2 0 0 0-2 2v14a2 2 0 0 0 2 2h14a2 2 0 0 0 2-2V6a2 2 0 0 0-2-2"/></svg>
